assets/ai/ai-protocols-square.svg

<svg xmlns="http://www.w3.org/2000/svg" width="100%" height="100%" viewBox="-75.52 -43.52 599.04 599.04"><path d="M 48 32 C 21.5 32 0 53.5 0 80 L 0 432 C 0 458.5 21.5 480 48 480 L 400 480 C 426.5 480 448 458.5 448 432 L 448 80 C 448 53.5 426.5 32 400 32 L 48 32 z M 119.17773 96.013672 C 121.9034 96.091142 124.79365 96.517192 127.83984 97.294922 C 140.62949 100.40591 152.03624 106.97349 162.40625 114.92383 C 174.85022 123.91115 185.9133 134.62831 194.90039 147.41797 C 196.28304 149.14623 197.66622 149.49023 199.74023 149.49023 L 247.7832 149.49023 C 250.20285 149.49023 251.5861 148.79666 252.96875 146.72266 C 268.17808 126.67402 286.84233 110.77627 310.00195 100.75195 C 314.14991 99.023626 318.99068 97.642552 323.48438 96.951172 C 336.61971 94.531522 346.64522 99.36847 352.86719 111.4668 C 357.70655 120.45411 359.78142 130.13584 361.16406 140.16016 C 363.23807 152.25848 363.92797 165.04425 364.96484 177.14258 C 361.85385 189.93222 366.35008 200.64767 371.18945 211.70898 C 382.94208 237.28829 391.58245 264.25298 395.73047 292.25195 C 396.42159 295.70862 396.42524 299.16641 396.77148 302.62305 C 398.49976 319.56073 391.58459 332.6944 378.10352 342.71875 C 361.85728 354.81706 343.88076 363.10812 324.86914 369.67578 C 311.73379 374.16944 299.28986 379.70605 288.57422 389.03906 C 276.13024 399.40903 261.26399 405.97522 246.05469 411.85156 C 231.5367 417.38221 217.01992 417.38221 202.50195 411.85156 C 182.10764 404.24687 163.09595 393.87733 147.19531 379.01367 C 146.15831 377.97667 144.43346 377.28121 143.05078 376.58984 C 123.69348 370.36785 104.33402 363.11221 86.359375 353.08789 C 79.791715 349.28557 73.915349 345.14012 67.693359 340.64648 C 53.866699 330.27645 49.375219 316.10366 51.449219 299.16602 C 54.905879 269.78439 63.546231 241.78231 75.644531 215.16602 C 81.520871 202.03069 84.978479 189.24455 84.287109 174.72656 C 83.250109 157.44325 85.666486 139.81461 90.160156 122.87695 C 90.851476 119.76595 91.890777 116.99971 93.273438 114.23438 C 98.609648 101.87682 107.36651 95.677902 119.17773 96.013672 z M 330.48047 112.9043 C 329.21118 112.89346 327.8094 113.10701 326.25391 113.53906 C 321.41458 114.57605 316.57569 116.30494 312.08203 118.72461 C 291.34208 129.44028 274.40491 144.65253 261.96094 164.70117 C 260.57828 166.77513 259.54074 167.46094 257.12109 167.46094 C 248.13375 166.76956 239.14359 166.08398 230.15625 166.08398 C 217.02094 166.08398 204.23492 167.11525 191.09961 167.46094 C 188.67996 167.46094 187.64245 167.11892 186.25977 165.04492 C 174.16144 144.99628 157.22239 130.13558 136.48242 119.41992 C 131.98875 117.00027 127.15178 115.61704 121.9668 114.23438 C 115.74479 112.50604 112.28292 114.57676 109.51758 120.10742 C 107.78925 123.56408 106.40802 127.36369 105.37109 131.16602 C 100.18611 152.59733 99.498255 174.37736 101.22656 196.5 C 101.22656 198.22833 100.87888 200.30097 100.1875 202.0293 C 84.286843 232.7936 73.222099 265.28886 68.037109 299.85547 C 65.963109 312.99082 69.077428 323.70584 80.830078 330.96484 C 85.669408 334.07584 90.506373 337.18585 95.345703 339.95117 C 113.32034 349.97552 132.67982 356.54171 152.03711 362.76367 C 153.41979 363.10934 154.80098 363.80482 155.83789 364.8418 C 171.73854 380.39673 190.75425 391.11395 211.83984 397.68164 C 217.02483 399.40992 223.58649 400.0955 228.77148 399.05859 C 252.2768 394.21919 272.67372 382.46697 290.30273 366.2207 C 292.03105 364.4924 294.10177 363.45699 296.17578 362.41992 C 306.54575 358.61765 317.26868 355.50931 327.63867 351.36133 C 342.50229 345.48502 357.36257 338.56726 369.80664 328.19727 C 374.99154 324.04928 379.14207 319.21017 379.48828 312.29688 C 379.83372 306.07486 379.48459 299.85681 378.44727 293.98047 C 372.91653 261.83351 362.2035 231.06527 346.99414 202.0293 C 346.3028 200.64664 345.95312 198.92172 345.95312 197.53906 C 346.99014 189.93442 347.68164 183.36424 348.02734 174.03125 C 346.9903 164.69826 346.64827 152.946 344.91992 141.19336 C 343.88291 133.93438 341.46063 126.67892 338.69531 119.41992 C 336.88056 115.01267 334.28818 112.937 330.48047 112.9043 z M 194.01562 209.87305 C 201.79919 210.01011 205.30912 212.965 208.03125 221.73633 C 212.17922 234.87167 210.45679 248.00724 208.38281 261.14258 C 206.65447 271.85822 201.81528 279.45938 191.09961 282.91602 L 189.01953 283.95508 C 169.31655 292.25109 158.60497 307.80296 153.76562 328.19727 C 153.07429 333.38226 152.03303 338.22124 150.99609 343.75195 C 142.00878 340.29526 133.02256 337.53474 124.72656 333.73242 C 114.01092 328.89309 103.64342 323.01307 93.273438 317.48242 C 91.199398 316.4454 90.160179 314.71654 90.505859 312.29688 C 91.542859 292.24824 96.729612 273.58603 107.09961 256.30273 C 111.59328 248.69807 117.81325 242.81976 124.72656 237.63477 C 143.39255 224.15377 164.13521 214.81983 186.60352 210.32617 C 187.98618 209.97978 189.02162 209.98242 190.4043 209.98242 C 191.70054 209.89611 192.90371 209.85355 194.01562 209.87305 z M 252.27539 209.99609 C 252.68067 209.98715 253.10008 209.99039 253.53516 210.00781 C 254.52963 210.04763 255.60872 210.15332 256.77539 210.32617 C 265.41707 211.70883 274.05362 213.78353 282.34961 216.89453 C 291.68261 220.35118 300.32714 224.50049 309.31445 228.99414 C 333.51109 241.09248 347.68422 260.79781 353.90625 287.06836 C 355.6346 295.36435 356.67009 304.00088 357.70703 312.29688 C 358.05268 315.06222 357.0134 316.44351 354.93945 317.82617 C 342.14973 326.46784 327.97694 332.69393 313.45898 337.87891 C 308.61966 339.95294 303.09122 341.67796 297.56055 343.75195 C 296.52356 338.22131 295.48619 333.38225 294.10352 328.19727 C 289.26419 308.14862 278.89825 291.90349 258.84961 284.29883 C 246.40563 279.4595 240.52524 270.82088 239.14258 258.03125 C 237.7599 246.62426 236.72686 235.55933 239.49219 224.15234 C 239.83775 222.76969 240.1797 221.73423 240.52539 220.35156 C 243.36093 213.2627 246.19617 210.13029 252.27539 209.99609 z M 228.08203 318.17773 C 232.57569 319.21472 240.52819 320.93772 248.47852 323.01172 C 250.89816 323.70307 253.3186 325.09004 255.39258 326.81836 C 259.88624 330.27503 261.26737 334.07673 259.19336 339.26172 C 253.66271 353.08838 244.67438 364.14528 231.53906 371.4043 C 226.69973 374.16965 221.51313 373.82589 216.67383 371.06055 C 203.88415 363.80156 194.55607 353.08647 189.37109 339.60547 C 186.95141 333.38347 189.02214 329.23788 195.24414 325.43555 C 204.23145 320.25054 214.25537 318.86909 228.08203 318.17773 z"/></svg>

<svg xmlns="http://www.w3.org/2000/svg" width="100%" height="100%" viewBox="-75.52 -43.52 599.04 599.04"><path d="M48 32C21.5 32 0 53.5 0 80v352c0 26.5 21.5 48 48 48h352c26.5 0 48-21.5 48-48V80c0-26.5-21.5-48-48-48H48zm71.178 64.014c2.725.077 5.616.503 8.662 1.28 12.79 3.112 24.196 9.68 34.566 17.63 12.444 8.987 23.507 19.704 32.494 32.494 1.383 1.728 2.766 2.072 4.84 2.072h48.043c2.42 0 3.803-.693 5.186-2.767 15.21-20.049 33.873-35.947 57.033-45.971 4.148-1.728 8.989-3.11 13.482-3.8 13.136-2.42 23.161 2.416 29.383 14.515 4.84 8.987 6.914 18.669 8.297 28.693 2.074 12.098 2.764 24.884 3.8 36.983-3.11 12.79 1.386 23.505 6.225 34.566 11.753 25.58 20.393 52.544 24.541 80.543.692 3.457.695 6.914 1.041 10.371 1.729 16.938-5.186 30.071-18.667 40.096-16.247 12.098-34.223 20.39-53.235 26.957-13.135 4.493-25.58 10.03-36.295 19.363-12.444 10.37-27.31 16.936-42.52 22.813-14.517 5.53-29.034 5.53-43.552 0-20.394-7.605-39.406-17.975-55.307-32.838-1.037-1.037-2.762-1.733-4.144-2.424-19.358-6.222-38.717-13.478-56.692-23.502-6.567-3.802-12.444-7.948-18.666-12.442-13.826-10.37-18.318-24.542-16.244-41.48 3.457-29.382 12.097-57.384 24.196-84 5.876-13.135 9.333-25.921 8.642-40.44-1.037-17.283 1.38-34.911 5.873-51.85.691-3.11 1.73-5.876 3.113-8.642 5.337-12.357 14.094-18.556 25.905-18.22zm211.302 16.89c-1.269-.01-2.67.203-4.226.635-4.84 1.037-9.678 2.766-14.172 5.186-20.74 10.715-37.677 25.928-50.121 45.976-1.383 2.074-2.42 2.76-4.84 2.76-8.987-.691-17.977-1.377-26.965-1.377-13.135 0-25.921 1.031-39.056 1.377-2.42 0-3.458-.342-4.84-2.416-12.099-20.049-29.038-34.91-49.778-45.625-4.493-2.42-9.33-3.803-14.515-5.186-6.222-1.728-9.684.343-12.45 5.873-1.728 3.457-3.109 7.257-4.146 11.059-5.185 21.431-5.873 43.211-4.144 65.334 0 1.728-.348 3.801-1.04 5.53-15.9 30.764-26.965 63.259-32.15 97.825-2.074 13.136 1.04 23.85 12.793 31.11 4.84 3.11 9.676 6.22 14.516 8.986 17.974 10.025 37.334 16.59 56.691 22.813 1.383.345 2.764 1.04 3.8 2.078 15.902 15.555 34.917 26.272 56.003 32.84 5.185 1.728 11.746 2.413 16.931 1.377 23.506-4.84 43.903-16.592 61.532-32.838 1.728-1.729 3.799-2.764 5.873-3.801 10.37-3.802 21.093-6.91 31.463-11.059 14.863-5.876 29.724-12.794 42.168-23.164 5.185-4.148 9.335-8.987 9.681-15.9.346-6.222-.003-12.44-1.04-18.317-5.531-32.146-16.244-62.915-31.454-91.95-.691-1.383-1.04-3.108-1.04-4.49 1.036-7.606 1.728-14.176 2.073-23.509-1.037-9.333-1.379-21.085-3.107-32.838-1.037-7.259-3.46-14.514-6.225-21.773-1.814-4.407-4.407-6.483-8.215-6.516zm-136.464 96.97c7.783.136 11.293 3.091 14.015 11.862 4.148 13.136 2.426 26.271.352 39.407-1.729 10.715-6.568 18.316-17.283 21.773l-2.08 1.04c-19.703 8.295-30.415 23.847-35.254 44.241-.692 5.185-1.733 10.024-2.77 15.555-8.987-3.457-17.973-6.217-26.27-10.02-10.715-4.839-21.083-10.719-31.453-16.25-2.074-1.037-3.113-2.765-2.767-5.185 1.037-20.049 6.224-38.711 16.594-55.994 4.493-7.605 10.713-13.483 17.627-18.668 18.666-13.481 39.408-22.815 61.877-27.309 1.382-.346 2.418-.344 3.8-.344 1.297-.086 2.5-.128 3.612-.109zm58.26.122c.405-.009.824-.006 1.26.012.994.04 2.073.145 3.24.318 8.641 1.383 17.278 3.458 25.574 6.569 9.333 3.456 17.977 7.605 26.964 12.1 24.197 12.097 38.37 31.803 44.592 58.073 1.729 8.296 2.764 16.933 3.801 25.229.346 2.765-.694 4.147-2.768 5.53-12.79 8.64-26.962 14.867-41.48 20.052-4.84 2.074-10.368 3.799-15.898 5.873-1.037-5.53-2.075-10.37-3.457-15.555-4.84-20.048-15.206-36.294-35.254-43.898-12.444-4.84-18.325-13.478-19.707-26.268-1.383-11.407-2.416-22.472.35-33.879.345-1.382.687-2.418 1.032-3.8 2.836-7.09 5.671-10.222 11.75-10.356zm-24.194 108.182c4.494 1.037 12.446 2.76 20.397 4.834 2.42.691 4.84 2.078 6.914 3.806 4.493 3.457 5.874 7.259 3.8 12.444-5.53 13.826-14.519 24.883-27.654 32.142-4.84 2.766-10.026 2.422-14.865-.343-12.79-7.26-22.118-17.975-27.303-31.456-2.42-6.222-.349-10.367 5.873-14.17 8.987-5.184 19.011-6.566 32.838-7.257z"/></svg>
